X:1
T:Ecco gia s'avicina
T:Rafaello Rontani
T:Source : Varie Musiche libro 60---Roma---G.B.Robletti---1622. Editor : André Vierendeels (22/11/16).
T:Notes : Original clefs : C1, F4 Editorial accidentals above the staff "Aria di Romanescha"
T:Ecco gia s'avicina
T:©
T:©
T:©
T:©
T:©
T:©
T:©
T:©
T:©
T:©
C:Rafaello Rontani
Z:©
%%score 1 2
L:1/8
Q:1/4=90
M:4/4
K:F
V:1 treble nm="Soprano" snm="S"
V:2 bass nm="BC"
V:1
 B8 | B4 B4 | B<c d/Tc/c/B/ c4 | c4 d/Tc/c/B/ A2 |"^BC" B6 F2 | G<A TB/A/A/G/- A4 | z8 | z8 | %8
w: Ec-|co gia|s'a- * * * * * vi-|ci- n'a- * * * *|ma- ti|lu- * * * * mi, _|||
 F6 F2 | G2 TB/A/A/G/ A>B A>B | c>d e<f F/G/A/B/ c/B/B/A/ | B4 B4- | B2 AA A4 | G8 | z4 z2 B2- | %15
w: l'ho- ra'e'l|pun- to _ _ _ cru- * * *||del, del-|* la par- ti-|ta,|l'ho-|
 B2 B2 c2 _e/Td/d/c/ | d>e d>e fF/G/ A/B/c/d/ | A/B/A/B/ c/d/e/f/ c/f/e/d/ fe/d/ | %18
w: * ra'e'l pun- to _ _ _|fa- * tal _ _ _ _ _ _ _ _|_ _ _ _ _ _ _ _ _ _ _ _ _ _ _|
 B/c/B/c/ de/f/ g2 B2- | B2 AA A4 | G8 || z4 d4 | f6 c2 | _e<d c<B c4 | c<A B<c dc cB/A/ | %25
w: * * * * * * * * del-|* la par- ti-|ta.|Mi-|ra- te|que- * sti _ miei|con- * * * ver- * * * *|
"^SECONDA PARTE" B/F/G/A/ B/c/d/e/ f3 F | Gc/B/ A>G- A4 | z8 | z2 B2 Bcde | f2 F4 FF | %30
w: * * * * * * * * * s'in-|fiu- * * * mi, _||ver- sar _ _ _|_ l'a- ni- m'af-|
 F3 E- F2 c2- | c2 cc c3 =B | c8 | B6 AA | A4 G4 | z4 z2 c2 | d/f/e/d/ c/B/A/G/ F2 f2- | %37
w: flit- ta, _ l'a-|* ni- m'af- flit- ta,|_|e sbi- got-|ti- ta,|ver-|sar _ _ _ _ _ _ _ _ l'a-|
 f2 _ed e4 | c2 _e4 dd | d4 c4- | c4 B4- | B2 _AG G3 ^F | G8 || z4 B4 | B4 c2 _e2- | e3 B c4 | %46
w: * ni- m'af- flit-|ta, l'a- ni- m'af-|flit- ta|_ e|_ sbi- got- ti- *|ta.|Al-|men con- sent'|_ a- mor,|
 z4 d<c B<A | B<A G<F B<A G<F |"^TERZA PARTE" G<^F G<A F4 | z8 | z2 B2 B>c B>c | %51
w: ch'io _ _ _|mi _ _ _ con- * * *|su- * * * mi,||e par- * * *|
 dG/A/ B/c/d/e/ f2 c2- | c2 TB>A A4 | fe ed/c/ d/A/B/c/ d/c/d/A/ | %54
w: * * * * * * * * t'an-|* zi ch'il pie|l'al- * * * * * * * * * * * *|
 B/G/A/B/ c/F/G/A/ B/c/d/e/ f/B/c/d/ | _e2 TB>A A4 | G4 z4 | z2 c2 d<c d<e | f2 _e4 c>B | %59
w: |* m'e la vi-|ta,|e par- * * *|* t'an- zi chi'l|
 c4 z/ f/e/d/ c/f/e/d/ | c/d/A/B/ c/B/c/d/ Bc/d/ AB/c/ | G/A/G/A/ Bc/d/ _e2 B>A | A8 | G8 || z8 | %65
w: pie l'al- * * * * * *||* * * * * * * * m'e la|vi-|ta||
 B4 z2 FF | F3 E F4 | c3 A dc cB/A/ | BG/A/ B/c/d/e/ f3 F | GA/B/ c2 d4 | z8 | z4 B>c B>c | %72
w: Che nu- do|spir- to _|da mor- tal _ _ _ _|_ _ _ _ _ _ _ _ di-|sciol- * * * to,||lie- * * *|
 d>c d/c/d/e/ fF/G/ A/B/c/d/ | B A2 TG A>B A>B | c>d B>c B/A/f d/c/B/A/ | B/F/G/A/ Bc/d/ _e2 B2 | %76
w: |* to vi- ro _ _ _|_ _ _ _ _ _ nel vo- * * *|* * * * * * * * stro|
 c<B A<G A4 | G8 | z4 d>e cd/e/ | fF/G/ A/B/c/d/ B TA2 G | A/B/G/A/ F/G/A/B/ cd/e/ f2 | %81
w: sen' _ se- * pol-|to,|lie- * * * *|* * * * * * * * to vi-|vro _ _ _ _ _ _ _ _ _ _ _|
 z2 d2 B/d/c/B/ A/c/B/A/ | G/A/B/c/ de/f/ g3 B | B3 A A4 | G8 |] %85
w: nel vo- * * * * * * *|* * * * * * * * stro|sen' se- pol-|to.|
V:2
 B,8 | B,4 A,4 | G,4 F,4 | F,2 F,2 F,2 F,2 | G,4 D,4 | _E,4 D,4 | D,2 D,2 D,2 C,2 | B,,4 B,4 | %8
 B,4 A,4 | G,4 F,4 | F,2 F,2 F,2 F,2 | G,2 F,2 _E,2 D,2 | C,2 _E,2 D,4 | G,,2 G,4 ^F,2 | %14
 G,2 A,2 B,4 | B,6 A,2 | G,4 F,4 | F,4 F,4 | G,2 F,2 _E,2 D,2 | C,2 _E,2 D,4 | G,,8 || B,8 | %22
 B,4 A,4 | G,4 F,4 | F,2 F,2 F,2 F,2 | G,4 D,4 | _E,4 D,4 | D,2 D,2 D,2 C,2 | B,,4 B,4 | B,4 A,4 | %30
 G,4 F,2 G,2 | A,2 F,2 G,4 | C,2 D,2 E,2 ^F,2 | G,2 D,2 _E,2 C,2 | D,4 G,,2 G,2- | %35
 G,2 ^F,2 G,2 A,2 | B,4 A,4 | G,8 | F,2 G,2 A,2 F,2 | G,4 C,2 D,2 | E,2 F,2 G,2 D,2 | %41
 _E,2 C,2 D,4 | G,,8 || B,8 | B,4 A,4 | G,4 F,4 | F,2 F,2 F,2 F,2 | G,4 D,4 | _E,4 D,4- | %49
 D,2 D,2 D,2 C,2 | B,,4 B,4 | B,4 A,4 | G,4 F,4- | F,2 F,2 F,2 F,2 | G,2 F,2 _E,2 D,2 | %55
 C,2 E,2 D,4 | G,,2 G,4 ^F,2 | G,2 A,2 B,4 | A,4 G,4 | F,4 F,4 | F,4 G,2 F,2 | _E,2 D,2 C,2 E,2 | %62
 D,8 | G,,8 || B,8 | B,4 A,4 | G,4 F,4 | F,2 F,2 F,2 F,2 | G,4 D,4 | _E,4 D,4 | D,2 D,2 D,2 C,2 | %71
 B,,4 B,4 | B,4 A,4 | G,4 F,4 | F,2 F,2 F,2 F,2 | G,2 F,2 _E,2 D,2 | C,2 _E,2 D,4 | G,,2 G,4 ^F,2 | %78
 G,2 A,2 B,4 | A,4 G,4 | F,4 F,4 | F,4 G,2 F,2 | _E,2 D,2 C,2 D,2 | _E,2 C,2 D,4 | G,,8 |] %85

